svgs/regular/calendar-pen.svg

<svg xmlns="http://www.w3.org/2000/svg" viewBox="0 0 448 512"><!--! Font Awesome Pro 6.0.0-alpha3 by @fontawesome - https://fontawesome.com License - https://fontawesome.com/license (Commercial License) --><path d="M296.5 295.5l-48.01-48.01l18.23-18.23c7.029-7.031 18.44-7.031 25.47 0l22.54 22.53c7.029 7.031 7.029 18.44 0 25.47L296.5 295.5zM135.2 415.9l47.61-9.52c2.322-.4687 4.455-1.609 6.131-3.281l90.58-90.57L231.5 264.5l-90.58 90.57c-1.676 1.68-2.818 3.812-3.281 6.133l-9.521 47.61C127.3 413 130.1 416.7 135.2 415.9zM448 128v320c0 35.35-28.65 64-64 64H64c-35.35 0-64-28.65-64-64V128c0-35.35 28.65-64 64-64h40V24C104 10.75 114.8 0 128 0S152 10.75 152 24V64h144V24c0-13.25 10.75-24 24-24S344 10.75 344 24V64H384C419.3 64 448 92.65 448 128zM400 192h-352v256c0 8.824 7.178 16 16 16h320c8.822 0 16-7.176 16-16V192z"/></svg>

<svg xmlns="http://www.w3.org/2000/svg" viewBox="0 0 448 512"><!--! Font Awesome Pro 6.0.0 by @fontawesome - https://fontawesome.com License - https://fontawesome.com/license (Commercial License) Copyright 2022 Fonticons, Inc. --><path d="M308.8 296.4L293.9 311.3L240.6 257.1L255.5 243C270.2 228.3 294.1 228.3 308.8 243C323.5 257.8 323.5 281.6 308.8 296.4V296.4zM146.1 352.5L217.1 280.6L271.3 333.9L199.4 405.9C195.3 409.1 190.1 412.9 184.5 414.3L147.9 423.4C142.4 424.8 136.7 423.2 132.7 419.2C128.7 415.3 127.1 409.5 128.5 404L137.6 367.4C139 361.8 141.1 356.6 146.1 352.5H146.1zM128 0C141.3 0 152 10.75 152 24V64H296V24C296 10.75 306.7 0 320 0C333.3 0 344 10.75 344 24V64H384C419.3 64 448 92.65 448 128V448C448 483.3 419.3 512 384 512H64C28.65 512 0 483.3 0 448V128C0 92.65 28.65 64 64 64H104V24C104 10.75 114.7 0 128 0zM400 192H48V448C48 456.8 55.16 464 64 464H384C392.8 464 400 456.8 400 448V192z"/></svg>
